X:1
T:Adel Samuel
T:dI
T:Adel
T:Adel
T:Adel
T:Adel
T:Adel
T:Adel
T:Adel
T:Adel
T:Adel
T:Adel
T:Adel
T:Adel
T:Adel
T:Adel
T:Adel
T:Adel
T:Adel
T:Adel
T:Adel
T:Adel
T:Adel
T:Adel
T:Adel
T:Adel
T:Adel
T:Adel
T:Adel
T:Adel
T:Adel
Z:Adel
%%score ( 1 2 3 )
L:1/8
Q:1/4=120
M:2/2
K:F
V:1 treble nm="Part_1"
V:2 treble 
V:3 treble 
V:1
!>(! z2 [d'f']8!>(! z2!>)! (3G^FG B6 | E8 |!>(! z2!>)! (3G^FG c2 A2 | B4 E4- | E2 (3DEC D4 || %5
[K:Bb] z2 (3D^CD A4 | G2 (3BAG G4 | z2 (3C=B,C G4 | F2 (3_AGF F4 | E2 _G(6:4:1F(6:4:1E D2 x5/3 | %10
 z2 CDB, C4 | z2 (3B,CA, B,4 | z2 (3A,B,G, A,4 | B,4 G,4 | z B2 G ^F3 G | A B2 A G2 ^F2 | %16
 z A2 F =E3 F- | F G2 F E2 D2 | z E2 C =B,3 C- | C E2 D C2 =B,2 | z D2 B, A,3 B,- | %21
 B, C2 B, A,2 G,2 | z B/.c/ BG ^F z z G- | G B2 A G2 g/a/b/c'/ | d'A/B/ AG ^F z z G- | %25
 G A2 F E2!>(! a/b/c'/!>)!d'/ |!<(! e'!<)!D/E/ DC =B,3 C- | C E2 D C2 =B,2 | z C/D/ CB, A,3 B,- | %29
 B, C2 B, (3B,A,_A, G,2 | z !>!B2 G ^F3 G | A B2 A G2 ^F2 | z A2 F =E3 F- | F G2 F E2 D2 | %34
 z E2 C =B,3 C- | C E2 D C2 =B,2 | z D2 B, A,3 B,- | B, C2 B, A,2 G,2 | z D2 B, A,3 B,- | %39
 B, C2 B, A,2 G,A, | B, C2 B, A,2 G,A, | B, C2 B, A,2 G,/G,/A,/A,/ | %42
 B,/B,/C/C/ D/D/E/E/ ^F/F/G z2 | x8 | x8 | %45
[M:6/8][K:treble] G,2 !>!=E6 DC C2 =B,B, C2 D2 C4 _B,/!>(!C/!>)!B,/A,/ B,2 A,/B,/A,/G,/ A,3 B, G,4 z2 G,G, A,2 B,2 | %46
 C4 D2 CB, A,2 A,A, A,2 A,2 =B,4 C2 _B,A, G,2 G,2 G, :: %47
 z2 G,G, D4 z2 G,G, E4 z2 E2 E2 EE EE E2 A,2 z2 z2 A,B, ^C2 B,B, D>C B,D | %48
 B,A, B,>A, G,2 B,A, G,4 :| G,3 G, G,2 G2 G z2 z2 A2 ^F3 E D3 ^C B,4 E2 E2 | %50
 ^F2 D2 E ^C3 D2 B,2 A,2 G, z G F2 z A G2 z B4 z G,A, B,D C2 z2 CD EG F4 | %51
 z GB A3 D3 z D B2 AG^F ED^C B,2 A2 A z z A A2 F2 D2 B,2 =C2 B,2 A,2 G2 G | %52
[M:4/4] z2 ^F F2 E E2 DD ^C2 B,2 E2 E z z D D3 C B,2 A,2 G,2 B,>A, G,4 D8 | %53
[M:4/4]S z !tenuto!D z2 [bd']8 | z F F=E G>F E>D | C=E D>C B,D C>B, | A,CCB, B,>A, G,D- | %57
 D D D=E FE F2 | z F F=E G>F E>D | C=E D>C B,D C>B, | A,CCB, B,>A, G,D- | DF/=E/ F2 F>E DC | %62
 C=EED E>D C>B, | B,B, C2 DD/C/ DC | z F F=E G>F ED | z F/=E/ F2 F>E DC | C=EED E>D C>B, | %67
 B,B, C2 DD/C/ DC |[K:treble] z F F=E G>F ED | z ^F/F/ F2 G>F!>(! =E!>)!D | z ^F F2 GF=ED | %71
 AG^F=E GFED | =E^FGF A>A G2 | z G AG AGAG | GA/B/ AG ^F>=E D2 | z B GG =E^F GE/F/ | %76
 GBGG =E^F GE/F/ | GBAG G2 G2 | z B AG A>A G2 | ABcB AG^FE | DG^FE DC D2 | A,C B,>A, G,2 z2 c'4 || %82
 x8 | x8 | z2 GG dc z c | Bd z d G4 | z G GG c=B z B | A G2 F E4 | (3z C CD E3 E- x | %89
 E G2 ^F G2 D2 | z B AG FEDC | z B,2 D G,4 | z G/A/ B/=B/c/^c/ d=c z c | Bd z d G d/^c d/=c | %94
 d<=B G/A/B B/ B/ cB z B | A G2 F E G/^F G/=F | G/E C C D E2 z/ E- | E G2 ^F GF/E/ D2 | %98
 z B AG ^FGED | ^CDB,A, G,4 | z G GG dc z c | Bd z d G4 | z G GG c=B z B | A G2 F E4 | %104
 z C CD E3 E- | E G2 ^F G2 D2 | z B AG FE z D | C B,2 D G,4 | z B AG FE z D | C B,2 D G,4 | %110
[K:treble] z B A/G/ F/E/ z D | C B,2 D!>)!!>(! G,4 |: G2 G/A/ G2 F/G/ x2 | F2 E/F/ E2 DD x | %114
 F/E/D/C/ E4 x2 | C/B,/ D3 D2 D x | A/G/G/F/ F2 E/D/ x3 | B/8A/8G/ A/8G/8F/ A/8G/8F/ G/8F/8E/ x5 | %118
 G/8F/8E/ F/8E/8D/8E/8 D/C/ D2 x15/4 :| B2 A/G/ ^F2 G/A/ x2 | B2 A/G/ F2 G2 x | %121
 A2 G/F/ E2 D/D/ x2 | A2 G/F/ E2 D2 x | C2 D2 E2 D/A/ x | A G2 F F/G/8A/8 G/F/ x9/4 | %125
 G/>F/ E/D/ B,/C/ D2 x3 | D2 E/E/ D2 A,2 x | B,2 C/B,/ A,2 G,2 x | z D F/E/ D2 A,2 x | %129
 z B, C/B,/ A,2 G,2 x | G3 F G/F/ G/<A/ x2 | F/ a/8g/8 f/g/ C/D/ E/>E/ x17/4 | E4 E2 E2- | %133
 E/C/8B,/8 A,/A,/ B,/C/ D2 x13/4 | DD E/4F/4E D2 A, x3/2 | B,A,/4B,/4 C/B,/ A,2 g/8a/8b/8c'/8 x3 | %136
 !tenuto!D F/E/ D2 A,2 x2 | B,/B,/C/B,/ A,2 G,2 x2 | G3 F G/F/ G/<A/ x2 | %139
 F/ a/8g/8 f/g/ C/D/ E/>E/ x17/4 | E4 E2 E2- | E/C/8B,/8 A,A, B,/C/ D2 x9/4 | z F G/F/ G2 F2 x | %143
 z F z G2 A/G/F/ x3/2 | E/E/F/E/ F2 E2 x2 | z E z F2 G E/D/ x | z F G/F/ G2 F2 x | %147
 z F z G2 A/G/F/ x3/2 | EEFE F2 E2 | z E z F2 G E/D/ x | G2 A2 G2 ^F2 | A2 B2 A/G/F/E/ x2 | %152
 D/F/G/F/ G2 F2 x2 | z F z G2 A/G/F/ x3/2 |[K:treble] EEFE F2 E2 | z E z F2 G E/!>(!D/ x!>)! | %156
 G2 A2 G2 ^F2 | A2 B2 A2 G2 | z B B/G/ A2 A/G/ x2 | z G B/G/ A2 A/G/ x2 | z A A/G/ ^F/>=E/ D2 x2 | %161
 z A A/G/ ^F/>=E/ D2 x2 | z D D/D/ =E2 D/D/ x2 | G2 D/D/ A2 D2 x | z c B/A/ G/^F/G/A/ x3 | %165
 BA/4B/4 c2 x9/2 | z2 B2 z2 A/G/^F/=E/ | D F2 E E2 D2 | D/C/B,/A,/ D2 D/C/ x3 | %169
[K:F][M:4/4] B,>A, G,2 z2 z2 ||[M:3/4] G, G,G, x3 | A,2 A,A, A,B, | G,2 G,G, G,G, | A,2 A,A, A,B, | %174
 G3 z A F/E/ | D3 C B,/A,/ x | C/B,/4A,/4 B,/>A,/ G,2 x2 | G,2 G,/B,/ A,/G,/ x2 | A,2 A,C A,B, | %179
 G,2 G,B, A,G, | A,2 A,C A,B, | G,2 G,G, G,G, | G,2 G,2 G,2 | D2 D2 z2 | E2 z2 D2 | E4 D2 | %186
 D2 C2!>)!!>(! C2 | A,2 G,2 C2 | D4 D2 | E4 E/^D/ x | E2 z2 E2 | ^F4 F/E/ x | ^F2 F2 z2 | %193
 G3 ^F E/F/ x | G3 ^F E/F/ x | G4 E/^F/ x | G3 ^F E/F/ x |!<(! G4 ^F/G/ x!<)! | A2 A2 ^F2 | %199
 E2 D2 D2 | B4 G2 | A6 |[K:treble] G4 ^F2 | B4 GG |!>(! A6!>)! | G4 G2 | B4 GG | A6 | G4 ^F2 | %209
 B4 GG | A6 | G4 ^F2 | B4 GG | A6 | G4 z2 z2 =F2 | F4 F/E x/ | G4 E2 | D6 | F4 FE | G4 E2 | %220
[K:Bb][M:3/4] !wedge!D6 ||[M:4/4] z G GF G>F ED | z D F2 E2!p! !>!F2 | D>C B,C D2 A2 | %224
 F>E DE F>E DE | FGEF D2 E2 | D2 G2 G4 | F4 G>F ED | z D/D/ F2 E2 F2 | D>C B,C D2 A2 | %230
 F>E DE F>E DE | FGEF D2 E2 | D2!>(! cB/.A/ B2!>)! G2 | E4 F>E D2 | z D/D/ F2 E2 F2 | %235
 D>C B,C D2 A2 | F>E DE F>E DE | FGEF D2 E2 | DBBA B2 F2 | GG B2 G>F E2 | F2 G2 _AA F2 | %241
 _A2 AG G4 | z F/F/ FE G2 ED | D3 C DE F2 | z F/F/ FE G2 ED | D3 C DE F2 | F2 F2 FFFE | %247
 G>F ED D2 E!tenuto!F | (6:4:5z2 GFAG GFFE | DEDC D2 EF | GFAG GFFE | DCB,A, G,2 EF | %252
 GFA z G F2 G |[K:treble] D z z C D2 EF | G^FAG GFF!>)!!>(!E | D[CC]B,A, G,2 GA | BAB c2 A2 B | %257
 GAG^F G2 GA | BAB c2 A2 B | G^FED EDEF | G^FAG GFFE | DEDC D2 EF | G^FAG GFFE | %263
 D[B,C]B,A, G,2 z2 | x8 |: D2 E2 D ^C2 D2 z C2 D z D2 G2 ^F2 G2 F2 G2 B2 AG G2 FE G2 FE E2 DC D2 | %266
 B,2 z B, A, G,4 D2 G2 ^F2 G A2 FD C2 B,2 B2 BB A>G A2 A2 AA B>A G2 c4 | %267
 c2 =B2 c4 _BA G2 z2 ED CB,A,G, :| z2 A2 A4 ^F2 D2 B,2 C2 B,2 A,2 A2 A2 | %269
 z2 A A4 ^F2 D2 B,2 C2 B,2 A,2 G2 G2 z2 F F2 E z E2 z D2 D2 ^C2 C2 B,2 E2 | %270
[M:4/4]S E4 z2 D D2 ^C2 B,2 A,2 B,2 A,3 G,2 D2 D4 |:[M:4/4] B,2 z z B,2 x2 :: B,CDE G3 ^F | %273
 G3 ^F G>F GG | G^F/ GG G/A/G/F/ G/A/G/F/ x/ | G/A/G/^F/ GA F2 z F | %276
 G/A/!wedge!G/F/ GA F z z D/C/ | B,CD!<(!E ^F3 z3 ^E | z ^F3 ^E F>E F!<)!F || %279
 ^F>^E FF F/G/F/E/ F/G/F/E/ | ^F/G/F/^E/ FG _E2 z G | A B/A/G/ A2 _B2 G z z2 :| %282
[K:treble] A/B/A/G/ A_B G z z B | e/d/c/B/ e/!>(!d/c/!>)!B/ e/d/c/B/ e/d/c/B/ | e/d/c/d/ cd B3 B, | %285
 [DE]/D/C/B,/ [DE]/D/C/B,/ [DE]/D/C/[B,E]/ x3/2 E/D/C/D/ CD B,4 |: B,2 !wedge!B,2 !wedge!B,2 B,2 | %287
 !wedge!B,2 B,2 !wedge!B,2 B,2 | GDGA B2 B2 | BdcB c/B/ A3 | ^FAGF G/F/ =E3 | C D2 z .=E FGAG | %292
 B8 :| B,/B,/B,/B,/ B,^F G4 | B,/B,/B,/B,/ B,^F G4 | z E G2 G2!>(! ^F>!>)!E |: EE G2 G2 ^F>E | %297
 EG^FG FGFG | ^FE G2 G2 F>E- | EE G2 ^F>E x2 |] .EE G2 G2 G2- | GGAG AGAG | AGAG _B>A G2 | %303
 ^FGAB AG A>G | ^FFF^E F2 FE | ^FG/A/ GF G>F ED | B,2 D2 E2 G2 | EDED EDED | DE z D EDEC | %309
 DCDC DCDC- | CD z C DCDB, | EDED EDED- | DE z D E^FGA | DCDC DCDC- | CD z C DE^FG | B,2 C2 D2 E2 | %316
 G^FED GFED | F3 E E3 D | D3 C EDCB, |: B,2 D2 EE E>C | B,2 D2 EE E>C | B,2 D2 EE E>C | %322
 B,2 D2 EE E/D/C |[K:treble] D E2 G F2 F2 | D E2 G ^F/E/D/!>)!!>(!C/ x2 :| B, C2 D E2 G2 | %326
 B4 A2 B2 | G2 z2 z2 G2 | B/>A/ G/A/ A2 G2 x2 | A3 G z x3 | A/G/G/^F/ F2 E2 x2 | %331
 G/^F/F/E/ E/8D/8C/ D/=E/ x17/4 | F8 | [DF]4 G3 _E | D2 z E D/C/ B,2 x |: B, D2 B, D/>C/ B,2 x | %336
 z C2 D E/C/E/C/ x2 | C E2 C E3 C- | C D2 ^F F/D/F/D/ x2 :| C D2 E ^F2 A/G/ x | B2 G2 c2 c/B/ x | %341
 B/>A/ G2 _B2 A/G/ x2 | G/>^F/ E2 G4 x | D4 B, C2 D | B,2 z2 z2 z2 | x8 | G8 | %347
 B/c/g/d/ B/A/G/B/ d/g/d/B/ A/G/B/d/ g/d/B/A/ G [G,B,DG]2 |: %348
 B,2 A,2 G, G,2 G,2 G,3 G, G,2 G,2 C2 D C/B,/ z2 z2 B,2 C/B,/A,/ | %349
 A, B,2 A,2 G, E8 D/8C/8 D2 C/8B,/8 C2 B,/4A,/4 B,2 A,/4G,/4 A,2 B,2 G,4 | %350
 E2 E2 E E2 E2 E/A,/ z2 E E2 E2 E A, z2 D4 C2 B,2 F4 | E/F/ G4 E2 D4 | G,4 A,4 B,4 :| %353
[M:4/4] C D3 z2 C D2 |[M:2/2][K:treble] z2 z F2 E/D/E/ |: F2 G2 A/G/!>(! A/>!>)!G/ x2 | %356
 F2 z G2 E2 F | E2 FF G2 F/G/ x | E/D/ z F E/E/D/E/ x3 | F2 G2 A/G/ A/>G/ x2 | F3 G2 E2 F | %361
 E2 FF G2 F/G/ x | E/D/ z F2 E2 D x | B3 c/8B/8 AB/4A/4 G/A/4G/4 x9/4 | F2 G2 F/G/F/G/ x2 | %365
 A3 B/8A/8 G/A/4G/4 F/G/8F/8 x3 | E2 z F2 E2 F | G4 F2 E2 | E2 D D2 E2 F | G2 G/F/ G/F/E/D/ x3 | %370
 z3 E/D/E/ x7/2 :| z3 D4 x | F3 E/8D/8 E3 D/8C/8 x3/2 | D8 | F4 _G2 F2 D4 |: %375
 z F2 F z F G2 G/F/ F2 D2 F/8E/8D/8E/8 D4 | %376
 E F2 F _G2 G/G/ A/G/F/E/ z2 F2 F/F/G/F/ E/D/ z2 F/8E/8D/8E/8 D/8C/8 D6 | %377
 D2 D z D A4 B/8A/8_G/8A/8 G/8F/8 G/8F/8E/8F/8 E/8D/8 E4 z D D D2 D2 B4!>(! c/8B/8A/8B/8 | %378
 A/8_G/8A/8G/8 F/8G/8F/8E/8 F4 F2 G2 G F4 F E2 z E2 F2 F E2 D z | %379
[M:2/4] E F2 F E2 E/F/ _G/F/E/D/ z2 E/F/ (3G/F/E/ D2 z2 E/>D/ C z2 C2 B,/>C/ D2 :| %380
[M:2/4][K:treble] z2 z/!p! .D2!p! E2!>)! | z4 | D2 E2 | z4 |: D2 E2 | D2 E2 | D2 E/E/ x | %387
 D2 E/E/ x | !tenuto!F4 | F2 E/F/ x | E2 D2 | E2 D2 | C2 D2 | C2 D2 | C2 D2 | C2 DD | E4- | %397
 E2 C/D/ x | C2 B,2 | A,2 G,2 :|[M:2/4]!>(! F2!>)! E2 |[M:2/4] D/F/8G/8 A/A/ A/G/G/F/ x/4 | %402
 F/G/A/A/ A/G/G/F/ | F/G/8A/8 G/F/ G/>F/ E/D/ x/4 | E/F/G/F/ A/8G/8F/8G/8 F/E/ x/ | %405
 E/F/G/F/ A/8G/8F/8G/8 F/E/ x/ | F2 E/D/ G4- | G4 G/F/ z F | A/G/F/E/ F2 (3G/F/E/ | %409
 D2 D/E/ B3 (3A/8G/8^F/8 | G3 (3E/8D/8C/8 D3 B,/4A,/4 | G,G, D/E/ B3 (3A/8G/8^F/8 | %412
 G3 (3E/8D/8C/8 D3 (3B,/4A,/4G,/4 | z2 A2 A4 ^F2 D2 B,2 C2 B,2 A,2 A2 A2 | %414
 z2 A A4 ^F2 D2 B,2 C2 B,2 A,2 G2 G2 z2 F F2 E z E2 z D2 D2 ^C2 C2 B,2 E2 | %415
[M:4/4] E4 z2 D D2 ^C2 B,2 A,2 B,2 A,3 G,2 D2 D4 |[M:4/4][K:treble] z z2 |: z D .G2 B2 z z2 | %418
 D G2 ^F2 z!>)!!>(! z2 | D F2 =E2 z z2 | C E2 D2 z z2 |: !>!D G2 B A2 GA | D3 F E4 | %423
 C D2 E A2 G^F | D2 B,D C4 | z B, A,C B,4 | z A, G,(3:2:2B, A,2 !wedge!D2 x | ^F2 A2 B G3 :| %428
 A,/B,/C z B, A,G, G,2 | A,/B,/C z B, A,G, G,2 | D/E/F z E DC =B,2 | D/E/F z E DC =B,2 | %432
 D/E/F z =E/F/ _GF/G/ =G z | ^F/G/ A2 G/A/ B2 G2 |: D G2 B A2 GA | D3 F E4 | %436
 C D2 E A2 !>!G!>!!wedge!^F | D2 B,D C4 | z B, A,C B,4 | z2 z A, !>!G,B, A,2 | ^F2 A2 B G3 :: %441
 A,/B,/C z B, A,G, G,>B, | A,/B,/C z B, A,G, G,2 :: DEDB, C2 C2 | DEDB, C2 CC | CCCC C2 C2 | %446
 CC D2 EEFD | DCCB, C2 B,2 | z B,2 C B,G/A/ B2 | z B, B,C A,G,A,B, | G,2 G,2 G3 F | FEED D2 C2 | %452
 D2 E2 G3 F | FEED D4 :: z D F2 E2 EE | z C E2 D2 DD | z E2 F E2 EC | EE F2 E2 D2 | C2 DD EEFE | %459
[K:treble] EDD^C D2 D2 | C=B,C[B,D] B,A,B,!>(!C!>)! | .A,.G,A,B, G,2 G,2 | GFGA F2 E/D/C | %463
 C D2 E G2 GF | FEED D4 :| B3 A2 G2 ^F | G4 d4 |: B3 A2 G2 ^F | G4 D4 | B3 A2 G2 ^F | %470
 G2 F=E F2 _ED | F=EFG _E3 C- | C D2 E F2 G2 | z D2 E DCC=B, | DCDE C3 C- | C D2 D =E2 E z | %476
 =E ^F2 F G2 GG | B3 A A2 GG | F E2 D C2 AG | F E2 D C2 A,2 | z3 x G,2 D/E/F/(G/ :| %481
 B,CA,B, G,2 B,A,) | G,3 B,2 D2 G | B4- BAGF | E3 D2 C2 A | G4- GFED | C3 B,2 A,2 G | F4- FEDC | %488
 B,3 D A,3 b D | G,3 C/D/ E/D/E/F/ G2 |: DE F/G/F E2 DD | D2 DC C2 B,C | D E2 F E2 D2 | %493
 DE F/G/F E2 D2 | DEGF E2 D2 | DC/D/ (3CB,C B,2 z2 | CB, A,2 FE D2 | D E2 F E2 D2 | %498
 DE F/G/F E2 D2 :| D D2 G2 D D2 | G2 z G2 FGF | GF G2 F G2 G | F4 E F2 G |[K:treble] E3 D2 =E2 E | %504
 ^F2 F F2 G2!>)!!>(! G |S A2 A2 BA G2 | x8 ||[K:F] c'4 G,3 c'4 C/D/ E/D/E/^F/ G2 |: D2 ^F2 G2 GA | %509
 D2 ^F2 A4 | z A A2 A2 AA ||[K:Bb] B2 ^F2 G4 | B2 ^F2 G4 | D2 ^F2 G2 GA | D2 ^F2 A4 | %515
 z A AA A^FFD | B2 ^F2 G3 G/A/ | BA^FG G4 | z G GG _AGGF | FEED F>E D2 | z G2 _A GFFE | E F2 E D4 | %522
 D2 D E2 E F2 | F A2 F F2 ED | GFGA F3 G | AGAB G3 ^F | BAG^F G3 G | BAG^F G3 F | BAG^F GFGF | %529
 BAG^F G2 z G/A/ | BA^FA G3 G/A/ | BA^FG G4 :| z G AB c2 cB | B2 BA A2 AG | z G AB c2 cB | %535
 B2 BA A2 AG | z G AB c_dBA | BcAG A>B AG | B2 AG ^F2 DD | B6 G2 | A2 A2 BA G2 |: c6 d/c/B/A/ | %542
 B6 c/B/A/G/ | A6 B/A/G/^F/ | z3 x5 :| .G6 B,A, | G,3 z2 B,2 D2 z2 G |[K:treble] B4- BAGF | %548
 E3 D2 C2 z2!>(! A!>)! | G4- GFED | C3 B,2 A,2 G | F4- FEDC | B,3 D A,3 D | [G,G]6 z2 |] x8!>)! |] %555
V:2
 x20 | B,8 | x8 | x8 | x8 ||[K:Bb] x8 | x8 | x8 | x8 | x2 z2 (6:4:2E2 x4 | x9 | x8 | x8 | x8 | x8 | %15
 x8 | x8 | x8 | x8 | x8 | x8 | x8 | x8 | x8 | x8 | x8 | x8 | x8 | x8 | x8 | x8 | x8 | x8 | x8 | %34
 x8 | x8 | x8 | x8 | x8 | x8 | x8 | x8 | x8 | x8 | x8 |[M:6/8][K:treble] x44 | x29 :: x44 | x12 :| %49
 x31 | x45 | x44 |[M:4/4] x44 |[M:4/4] x4 D=E FE F2 x2 | x8 | x8 | x8 | x8 | x8 | x8 | x8 | x8 | %62
 x8 | x8 | x8 | x8 | x8 | x8 |[K:treble] x8 | x8 | x8 | x8 | x8 | x8 | x8 | x8 | x8 | x8 | x8 | %79
 x8 | x8 | x12 || x8 | x8 | z !>!G x6 | x8 | x8 | x8 | x8 | x8 | x8 | x8 | x8 | x8 | x9 | x8 | x8 | %97
 x8 | x8 | x8 | x8 | x8 | x8 | x8 | x8 | x8 | x8 | x8 | x8 | x8 |[K:treble] x6 | x8 |: x8 | x8 | %114
 x8 | x8 | x8 | x8 | x8 :| x8 | x8 | x8 | x8 | x8 | x8 | x8 | x8 | x8 | x8 | x8 | x8 | x8 | x8 | %133
 x8 | x8 | x8 | x8 | x8 | x8 | x8 | x8 | x8 | x8 | x8 | x8 | x8 | x8 | x8 | x8 | x8 | x8 | x8 | %152
 x8 | x8 |[K:treble] x8 | x8 | x8 | x8 | x8 | x8 | x8 | x8 | x8 | x8 | x8 | x8 | x8 | x8 | x8 | %169
[K:F][M:4/4] x8 ||[M:3/4] x6 | x6 | x6 | x6 | x6 | x6 | x6 | x6 | x6 | x6 | x6 | x6 | x6 | x6 | %184
 x6 | x6 | x6 | x6 | x6 | x6 | x6 | x6 | x6 | x6 | x6 | x6 | x6 | x6 | x6 | x6 | x6 | x6 | %202
[K:treble] x6 | x6 | x6 | x6 | x6 | x6 | x6 | x6 | x6 | x6 | x6 | x6 | x10 | x6 | x6 | x6 | x6 | %219
 x6 |[K:Bb][M:3/4] x6 ||[M:4/4] x8 | x8 | x8 | x8 | x8 | x8 | x8 | x8 | x8 | x8 | x8 | x8 | x8 | %234
 x8 | x8 | x8 | x8 | x8 | x8 | x8 | x8 | x8 | x8 | x8 | x8 | x8 | x8 | x8 | x8 | x8 | x8 | x8 | %253
[K:treble] x8 | x8 | x8 | x8 | x8 | x8 | x8 | x8 | x8 | x8 | x8 | x8 |: x44 | x44 | x20 :| x24 | %269
 x45 |[M:4/4] x28 |:[M:4/4] x3 B,2 !wedge!B,2 x :: x8 | x8 | x8 | x8 | x8 | x11 | x9 || x8 | x8 | %281
 x21/2 :|[K:treble] x8 | x8 | x8 | x11/2 [DE]/D/C/B,/ x8 |: x8 | x8 | x8 | x8 | x8 | x9 | x8 :| %293
 x8 | x8 | x8 |: x8 | x8 | x8 | z3 G2 x3 |] x8 | x8 | x8 | x8 | x8 | x8 | x8 | x8 | x8 | x8 | x8 | %311
 x8 | x8 | x8 | x8 | x8 | x8 | x8 | x8 |: x8 | x8 | x8 | x8 |[K:treble] x8 | x8 :| x8 | x8 | x8 | %328
 x8 | x8 | x8 | x8 | x8 | x8 | x8 |: x8 | x8 | x8 | x8 :| x8 | x8 | x8 | x8 | x8 | x8 | x8 | D8 | %347
 x13 |: x57/2 | x59/2 | x33 | x11 | x12 :|[M:4/4] x9 |[M:2/2][K:treble] x13/2 |: x8 | x8 | x8 | %358
 x8 | x8 | x8 | x8 | x8 | x8 | x8 | x8 | x8 | x8 | x8 | x8 | F/>E/ D F2 x4 :| F/>E/ D z x5 | x8 | %373
 x8 | x12 |: x35/2 | x99/4 | x26 | x27 |[M:2/4] x26 :|[M:2/4][K:treble] x13/2 | x4 | x4 | x4 |: %384
 x4 | x4 | x4 | x4 | x4 | x4 | x4 | x4 | x4 | x4 | x4 | x4 | x4 | x4 | x4 | x4 :|[M:2/4] x4 | %401
[M:2/4] x4 | x4 | x4 | x4 | x4 | x7 | x7 | x5 | x25/4 | x27/4 | x25/4 | x27/4 | x24 | x45 | %415
[M:4/4] x28 |[M:4/4][K:treble] x3 |: x9 | x8 | x8 | x8 |: x8 | x8 | x8 | x8 | x8 | x8 | x8 :| x8 | %429
 x8 | x8 | x8 | x8 | x8 |: x8 | x8 | x8 | x8 | x8 | x2 z2 x2 D2 | x8 :: x8 | x8 :: x8 | x8 | x8 | %446
 x8 | x8 | x8 | x8 | x8 | x8 | x8 | x8 :: x8 | x8 | x8 | x8 | x8 |[K:treble] x8 | x8 | x8 | x8 | %463
 x8 | x8 :| x8 | x8 |: x8 | x8 | x8 | x8 | x8 | x8 | x8 | x8 | x8 | x8 | x8 | x8 | x8 | %480
 B,CA,B, x4 :| x8 | x8 | x8 | x8 | x8 | x8 | x8 | x9 | x8 |: x8 | x8 | x8 | x8 | x8 | x8 | x8 | %497
 x8 | x8 :| x8 | x8 | x8 | x8 |[K:treble] x8 | x8 | x8 | x8 ||[K:F] x16 |: x8 | x8 | x8 || %511
[K:Bb] x8 | x8 | x8 | x8 | x8 | x8 | x8 | x8 | x8 | x8 | x8 | x8 | x8 | x8 | x8 | x8 | x8 | x8 | %529
 x8 | x8 | x8 :| x8 | x8 | x8 | x8 | x8 | x8 | x8 | x8 | x8 |: x8 | x8 | x8 | G4- GAB=B :| x8 | %546
 x12 |[K:treble] x8 | x10 | x8 | x8 | x8 | x8 | x8 |] x8 |] %555
V:3
 x20 | x8 | x8 | x8 | x8 ||[K:Bb] x8 | x8 | x8 | x8 | x/3 (6:4:2x4 z2 x11/3 | x9 | x8 | x8 | x8 | %14
 x8 | x8 | x8 | x8 | x8 | x8 | x8 | x8 | x8 | x8 | x8 | x8 | x8 | x8 | x8 | x8 | x8 | x8 | x8 | %33
 x8 | x8 | x8 | x8 | x8 | x8 | x8 | x8 | x8 | x8 | x8 | x8 |[M:6/8][K:treble] x44 | x29 :: x44 | %48
 x12 :| x31 | x45 | x44 |[M:4/4] x44 |[M:4/4] x12 | x8 | x8 | x8 | x8 | x8 | x8 | x8 | x8 | x8 | %63
 x8 | x8 | x8 | x8 | x8 |[K:treble] x8 | x8 | x8 | x8 | x8 | x8 | x8 | x8 | x8 | x8 | x8 | x8 | %80
 x8 | x12 || x8 | x8 | x8 | x8 | x8 | x8 | x8 | x8 | x8 | x8 | x8 | x8 | x9 | x8 | x8 | x8 | x8 | %99
 x8 | x8 | x8 | x8 | x8 | x8 | x8 | x8 | x8 | x8 | x8 |[K:treble] x6 | x8 |: x8 | x8 | x8 | x8 | %116
 x8 | x8 | x8 :| x8 | x8 | x8 | x8 | x8 | x8 | x8 | x8 | x8 | x8 | x8 | x8 | x8 | x8 | x8 | x8 | %135
 x8 | x8 | x8 | x8 | x8 | x8 | x8 | x8 | x8 | x8 | x8 | x8 | x8 | x8 | x8 | x8 | x8 | x8 | x8 | %154
[K:treble] x8 | x8 | x8 | x8 | x8 | x8 | x8 | x8 | x8 | x8 | x8 | x8 | x8 | x8 | x8 | %169
[K:F][M:4/4] x8 ||[M:3/4] x6 | x6 | x6 | x6 | x6 | x6 | x6 | x6 | x6 | x6 | x6 | x6 | x6 | x6 | %184
 x6 | x6 | x6 | x6 | x6 | x6 | x6 | x6 | x6 | x6 | x6 | x6 | x6 | x6 | x6 | x6 | x6 | x6 | %202
[K:treble] x6 | x6 | x6 | x6 | x6 | x6 | x6 | x6 | x6 | x6 | x6 | x6 | x10 | x6 | x6 | x6 | x6 | %219
 x6 |[K:Bb][M:3/4] x6 ||[M:4/4] x8 | x8 | x8 | x8 | x8 | x8 | x8 | x8 | x8 | x8 | x8 | x8 | x8 | %234
 x8 | x8 | x8 | x8 | x8 | x8 | x8 | x8 | x8 | x8 | x8 | x8 | x8 | x8 | x8 | x8 | x8 | x8 | x8 | %253
[K:treble] x8 | x8 | x8 | x8 | x8 | x8 | x8 | x8 | x8 | x8 | x8 | x8 |: x44 | x44 | x20 :| x24 | %269
 x45 |[M:4/4] x28 |:[M:4/4] x8 :: x8 | x8 | x8 | x8 | x8 | x11 | x9 || x8 | x8 | x21/2 :| %282
[K:treble] x8 | x8 | x8 | x31/2 |: x8 | x8 | x8 | x8 | x8 | x9 | x8 :| x8 | x8 | x8 |: x8 | x8 | %298
 x8 | x8 |] x8 | x8 | x8 | x8 | x8 | x8 | x8 | x8 | x8 | x8 | x8 | x8 | x8 | x8 | x8 | x8 | x8 | %317
 x8 | x8 |: x8 | x8 | x8 | x8 |[K:treble] x8 | x8 :| x8 | x8 | x8 | x8 | x8 | x8 | x8 | x8 | x8 | %334
 x8 |: x8 | x8 | x8 | x8 :| x8 | x8 | x8 | x8 | x8 | x8 | x8 | G,8 | x13 |: x57/2 | x59/2 | x33 | %351
 x11 | x12 :|[M:4/4] x9 |[M:2/2][K:treble] x13/2 |: x8 | x8 | x8 | x8 | x8 | x8 | x8 | x8 | x8 | %364
 x8 | x8 | x8 | x8 | x8 | x8 | x8 :| x8 | x8 | x8 | x12 |: x35/2 | x99/4 | x26 | x27 | %379
[M:2/4] x26 :|[M:2/4][K:treble] x13/2 | x4 | x4 | x4 |: x4 | x4 | x4 | x4 | x4 | x4 | x4 | x4 | %392
 x4 | x4 | x4 | x4 | x4 | x4 | x4 | x4 :|[M:2/4] x4 |[M:2/4] x4 | x4 | x4 | x4 | x4 | x7 | x7 | %408
 x5 | x25/4 | x27/4 | x25/4 | x27/4 | x24 | x45 |[M:4/4] x28 |[M:4/4][K:treble] x3 |: x9 | x8 | %419
 x8 | x8 |: x8 | x8 | x8 | x8 | x8 | x8 | x8 :| x8 | x8 | x8 | x8 | x8 | x8 |: x8 | x8 | x8 | x8 | %438
 x8 | x3 z3/2 x7/2 | x8 :: x8 | x8 :: x8 | x8 | x8 | x8 | x8 | x8 | x8 | x8 | x8 | x8 | x8 :: x8 | %455
 x8 | x8 | x8 | x8 |[K:treble] x8 | x8 | x8 | x8 | x8 | x8 :| x8 | x8 |: x8 | x8 | x8 | x8 | x8 | %472
 x8 | x8 | x8 | x8 | x8 | x8 | x8 | x8 | x8 :| x8 | x8 | x8 | x8 | x8 | x8 | x8 | x9 | x8 |: x8 | %491
 x8 | x8 | x8 | x8 | x8 | x8 | x8 | x8 :| x8 | x8 | x8 | x8 |[K:treble] x8 | x8 | x8 | x8 || %507
[K:F] x16 |: x8 | x8 | x8 ||[K:Bb] x8 | x8 | x8 | x8 | x8 | x8 | x8 | x8 | x8 | x8 | x8 | x8 | x8 | %524
 x8 | x8 | x8 | x8 | x8 | x8 | x8 | x8 :| x8 | x8 | x8 | x8 | x8 | x8 | x8 | x8 | x8 |: x8 | x8 | %543
 x8 | x8 :| x8 | x12 |[K:treble] x8 | x10 | x8 | x8 | x8 | x8 | x8 |] x8 |] %555

